X: 110
T:Missa Di dadi / Agnus Dei
N: Derived from Jos0903e-Missa_Di_dadi-Agnus.krn
C: Josquin des Prez
%%abc-version 2.0
%%abcx-abcm2ps-target-version 5.9.1 (29 Sep 2008)
%%abc-creator hum2abc beta
%%abcx-conversion-date 2019/02/12 16:15:43
%%abc-edited-by Jesse Rodin
%%abc-edited-by Jesse Rodin; Victoria Chang 2012/01/28
%%abcx-initial-encoding-date 2012/01/28/
%%humdrum-veritas 2908652571
%%humdrum-veritas-data 236200429
%%linebreak <none>
%%barnumbers 0
L: 1/4
M: 2/1
Q: 1/2=120
%%staves [1 2 3 4]
V: 1 clef=treble
V: 2 clef=treble-8
V: 3 clef=treble-8
V: 4 clef=bass
K: F
[V:1] G4B3A | 
[V:2] z8 | 
[V:3] G8 :
[V:4] G,4G,2B,2- | 
[V:1] F2G4^F2 | 
[V:2] z8 | 
[V:3] B4c4 :
[V:4] B,2A,G,A,4 | 
[V:1] G4G,4 | 
[V:2] z2G2B4 | 
[V:3] d8 | 
[V:4] G,2B,3A,G,2- | 
[V:1] z4z2G2 | 
[V:2] A4G2B2- | 
[V:3] z4B4 :
[V:4] G,2^F,2G,4 | 
[V:1] B4A4 | 
[V:2] BAG4^F2 | 
[V:3] G4A4 :
[V:4] z8 | 
[V:1] G2B3AG2- | 
[V:2] G8 | 
[V:3] B8 | 
[V:4] z2G,2B,4 | 
[V:1] G2^F2G4 | 
[V:2] z4z2G2 | 
[V:3] c4d4- :
[V:4] A,4G,4 | 
[V:1] G,4z2D2- | 
[V:2] B3cd4 | 
[V:3] d4B4 :
[V:4] z2B,3A,G,2 | 
[V:1] D2D2D4 | 
[V:2] D8 | 
[V:3] A8 | 
[V:4] F,2G,4^F,2 | 
[V:1] B,3CD4 | 
[V:2] z2G2B3c | 
[V:3] G8 :
[V:4] G,4z2G,,2 | 
[V:1] z2D4C2- | 
[V:2] d2D2F4 | 
[V:3] F8 :
[V:4] B,,6A,,2- | 
[V:1] CA,C2B,2D2 | 
[V:2] F2E2G2D2 | 
[V:3] A4B4 | 
[V:4] A,,4G,,2B,,2 | 
[V:1] C2E3DGF | 
[V:2] F2E2G2D2 | 
[V:3] c4B4 :
[V:4] A,,4G,,4 | 
[V:1] _EDD4C2 | 
[V:2] _E8 | 
[V:3] G8 :
[V:4] z2B,3A,G,2 | 
[V:1] D4z2F2 | 
[V:2] D4z2D2 | 
[V:3] A8 | 
[V:4] F,2G,4F,2 | 
[V:1] _E2D3B,C2 | 
[V:2] _E4_E4 | 
[V:3] G8 :
[V:4] G,2B,3A,G,2 | 
[V:1] D2B,2A,4 | 
[V:2] D4z2D2 | 
[V:3] z8 :
[V:4] F,2G,4^F,2 | 
[V:1] G,4z2G2 | 
[V:2] _E4_E4 | 
[V:3] B8 | 
[V:4] G,8 | 
[V:1] B3AF2G2 | 
[V:2] D4z2D2 | 
[V:3] d8 :
[V:4] z2G,,2B,,4 | 
[V:1] A2A,2B,2G,A, | 
[V:2] E2F2G2B2- | 
[V:3] c4B4- :
[V:4] A,,4G,,4 | 
[V:1] B,CD4C2 | 
[V:2] BAGF_E4 | 
[V:3] B4G4 | 
[V:4] z2B,3A,G,2 | 
[V:1] D4z2A2 | 
[V:2] D8 | 
[V:3] A8 :
[V:4] F,2G,4F,2 | 
[V:1] B3GA3B | 
[V:2] z2d3efd | 
[V:3] G4F4 :
[V:4] G,2B,2A,4 | 
[V:1] c2B4AG | 
[V:2] _e2d4c2 | 
[V:3] _E8 | 
[V:4] z4G,4 | 
[V:1] F4z4 | 
[V:2] d8- | 
[V:3] D8 :
[V:4] B,4A,4 | 
[V:1] B8 | 
[V:2] d8 | 
[V:3] G8 :
[V:4] G,2B,3A,G,2 | 
[V:1] A4A4 | 
[V:2] D8 | 
[V:3] z4A4 | 
[V:4] F,2G,4^F,2 | 
[V:1] D2B3AG2- | 
[V:2] z4d4 | 
[V:3] B8 :
[V:4] G,8 | 
[V:1] G2FEFGAF | 
[V:2] e4c3d | 
[V:3] c4A4 :
[V:4] z8 | 
[V:1] G8 | 
[V:2] _e2d2B2d2- | 
[V:3] G8 | 
[V:4] z4G,,4 | 
[V:1] z8 | 
[V:2] d4c2f2- | 
[V:3] F8 :
[V:4] B,,4A,,2D,2- | 
[V:1] z8 | 
[V:2] fec3d_e2- | 
[V:3] A8 :
[V:4] D,E,F,3E,C,2- | 
[V:1] z8 | 
[V:2] edB3cd2 | 
[V:3] G8 | 
[V:4] C,D,_E,3D,B,,2 | 
[V:1] z8 | 
[V:2] G2c3AA2- | 
[V:3] E4F4 :
[V:4] C,2A,,4D,2- | 
[V:1] z8 | 
[V:2] A2d3BB2- | 
[V:3] D4G4- :
[V:4] D,2B,,4G,,2 | 
[V:1] z8 | 
[V:2] B2G2A2F2- | 
[V:3] G4F4 | 
[V:4] B,,2C,2A,,2D,2- | 
[V:1] z8 | 
[V:2] F2G4E2 | 
[V:3] B4G4 :
[V:4] D,2G,,2B,,2C,2 | 
[V:1] z8 | 
[V:2] F3DD2d2- | 
[V:3] A4B4- :
[V:4] A,,2D,4B,,2- | 
[V:1] z8 | 
[V:2] dBB4G2 | 
[V:3] B4G4 | 
[V:4] B,,2G,,2B,,2C,2 | 
[V:1] z4D4 | 
[V:2] A4D4 | 
[V:3] F8- :
[V:4] A,,2D,4B,,2 | 
[V:1] C2FGABA2- | 
[V:2] A4z2D2 | 
[V:3] F8 :
[V:4] A,,2D,6- | 
[V:1] AGG4^F2 | 
[V:2] F2G2A4 | 
[V:3] z8 | 
[V:4] D,2B,,2A,,2D,2 | 
[V:1] G4z2D2 | 
[V:2] G4d4- | 
[V:3] B8 :
[V:4] z2G,,2B,,3C, | 
[V:1] F3GA2A,2 | 
[V:2] d2cdA2d2- | 
[V:3] A4F4 :
[V:4] D,8 | 
[V:1] B,3CD_ED2- | 
[V:2] d2G2B3c | 
[V:3] G8 | 
[V:4] z4z2G,,2 | 
[V:1] D2CB,A,4 | 
[V:2] d2D3EF2 | 
[V:3] F8 :
[V:4] B,,3C,D,4 | 
[V:1] G,4z2D2 | 
[V:2] GDG2D2G2 | 
[V:3] B8 :
[V:4] z2G,,2B,,3C, | 
[V:1] F3GA2A,2 | 
[V:2] F2A3GF2 | 
[V:3] A4F4 | 
[V:4] D,8 | 
[V:1] B,2C2D2F2- | 
[V:2] E4D4 | 
[V:3] G4A4- :
[V:4] z4z2D,2 | 
[V:1] FGABc3B | 
[V:2] z2F3GAB | 
[V:3] A4F4 :
[V:4] F,3G,A,B,C2- | 
[V:1] G2B3AG2- | 
[V:2] c2G2B2c2 | 
[V:3] E8 | 
[V:4] C2B,2G,4 | 
[V:1] G2F2E2D2- | 
[V:2] d4z2B2 | 
[V:3] D4G4- :
[V:4] A,4z2G,,2 | 
[V:1] D2CB,A,4 | 
[V:2] d2e2f2F2 | 
[V:3] G4F4 :
[V:4] B,,2C,2D,4 | 
[V:1] z2G,2B,2G,2 | 
[V:2] G2B2G2d2- | 
[V:3] B8 | 
[V:4] z4z2G,2 | 
[V:1] D4z2D2 | 
[V:2] dcBAG2B2- | 
[V:3] G8 :
[V:4] B,2G,2D4 | 
[V:1] F3GABc2 | 
[V:2] B2A2F2A2 | 
[V:3] z4A4 :
[V:4] z2D,2F,4 | 
[V:1] BAGFEDE2 | 
[V:2] G2d2c2A2 | 
[V:3] B4c4 | 
[V:4] G,4A,4 | 
[V:1] D2F3GAB | 
[V:2] B4A4 | 
[V:3] d8 :
[V:4] z2D,3E,F,G, | 
[V:1] c2A2D2F2- | 
[V:2] z2A2d4- | 
[V:3] c4B4 :
[V:4] A,2F,2G,2D,2- | 
[V:1] FGABc2A2 | 
[V:2] d2c3Ac2 | 
[V:3] A8 | 
[V:4] D,E,F,G,A,2F,2 | 
[V:1] z2B4G2 | 
[V:2] B3AGFE2 | 
[V:3] G8 :
[V:4] G,2G,,2B,,2C,2 | 
[V:1] B2A4D2 | 
[V:2] [M:2/1](3:2:6D3EF2D2F2D2 | 
[V:3] F8 :
[V:4] D,4z2B,,2 | 
[V:1] C2A,2D4 | 
[V:2] (3E2A2F2(3G2B2F2 | 
[V:3] A4B4 | 
[V:4] C,2D,2B,,2D,2 | 
[V:1] z2C2B,2G,2 | 
[V:2] (3G2c2A2(3B2G2d2 | 
[V:3] c4d4 :
[V:4] E,2F,2B,,2B,2- | 
[V:1] B6AG | 
[V:2] (3G2B2G2(3d2B2c2 | 
[V:3] B4G4 :
[V:4] B,A,G,3F,E,2 | 
[V:1] F2G4^F2 | 
[V:2] (3d2f2e2(3d3cA2 | 
[V:3] A8 | 
[V:4] D,2C,2D,4 | 
[V:1] G8 ||  
[V:2] B8 ||  
[V:3] G8 ||  
[V:4] G,,8 ||  
[V:1]  [K:F] [K:clef=treble][M:2/1]z8 | 
[V:2]  [K:F] [K:clef=treble-8][M:2/1]d8 | 
[V:3]  [K:F] [K:clef=treble-8][M:2/1]z8 | 
[V:4]  [K:F] [K:clef=bass][M:2/1]G,8- | 
[V:1] z8 | 
[V:2] _e4d4- | 
[V:3] z8 | 
[V:4] G,8 | 
[V:1] z8 | 
[V:2] d4B4 | 
[V:3] z8 | 
[V:4] G,8 | 
[V:1] z8 | 
[V:2] c4_e4- | 
[V:3] z8 | 
[V:4] C,8 | 
[V:1] z8 | 
[V:2] e2d2d4- | 
[V:3] z8 | 
[V:4] G,8 | 
[V:1] z8 | 
[V:2] d2c2B3A | 
[V:3] z8 | 
[V:4] G,,8 | 
[V:1] z8 | 
[V:2] B2A4F2 | 
[V:3] z8 | 
[V:4] D,8 | 
[V:1] z8 | 
[V:2] G2B3GA2- | 
[V:3] z8 | 
[V:4] _E,4D,4- | 
[V:1] z8 | 
[V:2] A2F2G2B2 | 
[V:3] z8 | 
[V:4] D,4B,,4 | 
[V:1] z8 | 
[V:2] A2G4c2- | 
[V:3] z8 | 
[V:4] C,4_E,4- | 
[V:1] z8 | 
[V:2] c2B3AA2- | 
[V:3] z8 | 
[V:4] E,2D,2D,4- | 
[V:1] z8 | 
[V:2] A2d4c2 | 
[V:3] z8 | 
[V:4] D,4F,4 | 
[V:1] z8 | 
[V:2] _e2d4G2 | 
[V:3] z8 | 
[V:4] G,4B,4- | 
[V:1] z8 | 
[V:2] d2c4F2- | 
[V:3] z8 | 
[V:4] B,2A,2A,4- | 
[V:1] z8 | 
[V:2] F2c2d2f2- | 
[V:3] z8 | 
[V:4] A,4F,4 | 
[V:1] z8 | 
[V:2] f2e2d2f2- | 
[V:3] z8 | 
[V:4] G,4B,4 | 
[V:1] z8 | 
[V:2] f2e2d2c2- | 
[V:3] z8 | 
[V:4] A,2G,2B,4 | 
[V:1] z8 | 
[V:2] c2B2A4 | 
[V:3] z8 | 
[V:4] A,2G,4F,2 | 
[V:1] z8 | 
[V:2] G2B2A2c2- | 
[V:3] z8 | 
[V:4] E,2D,2F,4 | 
[V:1] z8 | 
[V:2] c2B2A4 | 
[V:3] z8 | 
[V:4] E,2D,4C,2 | 
[V:1] z8 | 
[V:2] G4F2G2- | 
[V:3] z8 | 
[V:4] B,,2A,,4G,,2 | 
[V:1] z8 | 
[V:2] G2A3FB2- | 
[V:3] z8 | 
[V:4] B,,2C,2D,4- | 
[V:1] z8 | 
[V:2] BAd3cA2- | 
[V:3] z8 | 
[V:4] D,4D,4 | 
[V:1] z8 | 
[V:2] AGc3BG2- | 
[V:3] z8 | 
[V:4] C,4_E,4- | 
[V:1] z8 | 
[V:2] GAB4A2 | 
[V:3] z8 | 
[V:4] E,4D,4- | 
[V:1] z8 | 
[V:2] F2A2G2B2- | 
[V:3] z8 | 
[V:4] D,2C,2_E,3D, | 
[V:1] z8 | 
[V:2] B4A2c2- | 
[V:3] z8 | 
[V:4] B,,4F,4- | 
[V:1] z8 | 
[V:2] c4B2d2- | 
[V:3] z8 | 
[V:4] F,2_E,2G,3F, | 
[V:1] z8 | 
[V:2] d4c2A2 | 
[V:3] z8 | 
[V:4] D,4F,4 | 
[V:1] z8 | 
[V:2] c4B2G2 | 
[V:3] z8 | 
[V:4] _E,2C,2E,4 | 
[V:1] z8 | 
[V:2] B2A4d2- | 
[V:3] z8 | 
[V:4] D,4F,4 | 
[V:1] z8 | 
[V:2] dBcd_e2d2 | 
[V:3] z8 | 
[V:4] G,2A,3G,B,2 | 
[V:1] z8 | 
[V:2] f2e3df2 | 
[V:3] z8 | 
[V:4] A,3G,B,2A,2- | 
[V:1] z8 | 
[V:2] e2d3cBA | 
[V:3] z8 | 
[V:4] A,G,F,E,D,2G,2- | 
[V:1] z8 | 
[V:2] G2A2c2B2- | 
[V:3] z8 | 
[V:4] G,2F,3E,G,2 | 
[V:1] z8 | 
[V:2] BAc2B3A | 
[V:3] z8 | 
[V:4] F,3E,G,2F,2- | 
[V:1] z8 | 
[V:2] c2B3AGF | 
[V:3] z8 | 
[V:4] F,E,D,C,B,,2C,2 | 
[V:1] z8 | 
[V:2] G2B2A3G | 
[V:3] z8 | 
[V:4] _E,2D,3C,E,2 | 
[V:1] z8 | 
[V:2] B2A3GB2- | 
[V:3] z8 | 
[V:4] D,3C,_E,2D,2- | 
[V:1] z8 | 
[V:2] BAA4G2 | 
[V:3] z8 | 
[V:4] D,2C,2B,,4 | 
[V:1] z8 | 
[V:2] A8 | 
[V:3] z8 | 
[V:4] A,,4D,4- | 
[V:1] z8 | 
[V:2] z4A4 | 
[V:3] z8 | 
[V:4] D,2E,2F,4 | 
[V:1] z8 | 
[V:2] G4B4- | 
[V:3] z8 | 
[V:4] G,4G,,4 | 
[V:1] z8 | 
[V:2] B2AGA4 | 
[V:3] z8 | 
[V:4] D,6E,2 | 
[V:1] z8 | 
[V:2] D4d4- | 
[V:3] z8 | 
[V:4] F,4G,4 | 
[V:1] z8 | 
[V:2] d2c2B2A2- | 
[V:3] z8 | 
[V:4] G,,4D,4- | 
[V:1] z8 | 
[V:2] A2G2A2D2 | 
[V:3] z8 | 
[V:4] D,2E,2F,4 | 
[V:1] z8 | 
[V:2] d6c2 | 
[V:3] z8 | 
[V:4] G,4G,,4 | 
[V:1] z8 | 
[V:2] B2A4G2 | 
[V:3] z8 | 
[V:4] D,6E,2 | 
[V:1] z8 | 
[V:2] A2D2d4- | 
[V:3] z8 | 
[V:4] F,4G,4 | 
[V:1] z8 | 
[V:2] d2c2B2A2- | 
[V:3] z8 | 
[V:4] G,,4D,3E, | 
[V:1] z8 | 
[V:2] A2G2A4 | 
[V:3] z8 | 
[V:4] F,2G,4^F,2 | 
[V:1] z8 ||  
[V:2] G8 ||  
[V:3] z8 ||  
[V:4] G,8 ||  
[V:1]  [K:F] [K:clef=treble][M:2/1]z8 | 
[V:2]  [K:F] [K:clef=treble-8][M:2/1]G8 | 
[V:3]  [K:F] [K:clef=treble-8][M:2/1]G8 | 
[V:4]  [K:F] [K:clef=bass][M:3/0]z8 :
[V:1] z8 | 
[V:2] G4E4 | 
[V:3] B4c4 | 
[V:4] z8 :
[V:1] z8 | 
[V:2] D8 | 
[V:3] d8 | 
[V:4] z8 | 
[V:1] G,8 | 
[V:2] d6c2 | 
[V:3] z4B4 | 
[V:4] z8 :
[V:1] B,4C4 | 
[V:2] B2B2A4 | 
[V:3] G4A4 | 
[V:4] z8 :
[V:1] D6E2 | 
[V:2] G8 | 
[V:3] B8 | 
[V:4] z8 | 
[V:1] F2G2A4- | 
[V:2] F4f4- | 
[V:3] A8 | 
[V:4] D,8 :
[V:1] A4B4 | 
[V:2] f2e2d4 | 
[V:3] z8 | 
[V:4] F,4G,4 :
[V:1] c6A2 | 
[V:2] c4f4 | 
[V:3] z4F4 | 
[V:4] A,8 | 
[V:1] B4A4- | 
[V:2] e2d4c2 | 
[V:3] G4A4 | 
[V:4] z4F,4 :
[V:1] A2F2G4 | 
[V:2] d2f2e3d | 
[V:3] B8 | 
[V:4] D,4E,4 :
[V:1] A8 | 
[V:2] c2B2A4 | 
[V:3] A4d4- | 
[V:4] F,8 | 
[V:1] z4c4- | 
[V:2] B4F4 | 
[V:3] d4c4 | 
[V:4] G,4A,4- :
[V:1] c2B2A3G | 
[V:2] c8 | 
[V:3] A4c4- | 
[V:4] A,4F,4 :
[V:1] A2G4FE | 
[V:2] z4c4 | 
[V:3] c2B2G4 | 
[V:4] E,8 | 
[V:1] F8 | 
[V:2] d3ef2d2 | 
[V:3] A6B2 | 
[V:4] D,8 :
[V:1] z4c4- | 
[V:2] e6f2 | 
[V:3] c8- | 
[V:4] C,8 :
[V:1] c2B2A3G | 
[V:2] g4f4 | 
[V:3] c8 | 
[V:4] E,4F,4 | 
[V:1] B4A4- | 
[V:2] d4f4- | 
[V:3] B4c4 | 
[V:4] G,4F,4 :
[V:1] A4B4- | 
[V:2] f2e2d4- | 
[V:3] d8 | 
[V:4] D,8 :
[V:1] B2AGG4- | 
[V:2] d4c4 | 
[V:3] G8 | 
[V:4] E,8 | 
[V:1] G4F4 | 
[V:2] d8- | 
[V:3] A8 | 
[V:4] D,8 :
[V:1] G4B4 | 
[V:2] d8 | 
[V:3] G8 | 
[V:4] z8 :
[V:1] A8 | 
[V:2] z4f4 | 
[V:3] D8 | 
[V:4] F,8 | 
[V:1] c8 | 
[V:2] e4c4 | 
[V:3] z4A4 | 
[V:4] A,8 :
[V:1] B4A4- | 
[V:2] d4f4- | 
[V:3] B4c4 | 
[V:4] G,4F,4 :
[V:1] A2G2B4- | 
[V:2] f2e2d2c2 | 
[V:3] d8 | 
[V:4] D,8 | 
[V:1] B2A2G4 | 
[V:2] B4c4 | 
[V:3] G8 | 
[V:4] _E,8 :
[V:1] F4E4- | 
[V:2] d2D2E4 | 
[V:3] A8 | 
[V:4] D,4C,4 :
[V:1] E2D2D4- | 
[V:2] F4G4 | 
[V:3] D8 | 
[V:4] B,,8 | 
[V:1] D4^C4 | 
[V:2] A4z2A2- | 
[V:3] E8 | 
[V:4] A,,8 :
[V:1] D4F4 | 
[V:2] AFB2A4 | 
[V:3] D4d4 | 
[V:4] D,8 :
[V:1] G4G4 | 
[V:2] G8 | 
[V:3] B4c4- | 
[V:4] z4E,4 | 
[V:1] A4A4 | 
[V:2] z4A4 | 
[V:3] c2Bcd4- | 
[V:4] F,8 :
[V:1] D4G4 | 
[V:2] B4c4 | 
[V:3] d4G4 | 
[V:4] G,4E,4 :
[V:1] F4A4- | 
[V:2] d8 | 
[V:3] A6B2 | 
[V:4] D,8 | 
[V:1] A2G2G4- | 
[V:2] _e4c4- | 
[V:3] c6B2 | 
[V:4] C,8 :
[V:1] G2B4AG | 
[V:2] c2B2G4 | 
[V:3] G4B4- | 
[V:4] _E,8 :
[V:1] B4A4 | 
[V:2] d4z2d2- | 
[V:3] B2A2F4 | 
[V:4] D,8 | 
[V:1] z2D2E3D | 
[V:2] dcd2c3B | 
[V:3] G6A2- | 
[V:4] B,,4C,4 :
[V:1] E2F4ED | 
[V:2] c2A3FF2- | 
[V:3] A4F2A2- | 
[V:4] A,,4D,4- :
[V:1] F4E4 | 
[V:2] FEF2G2A2- | 
[V:3] A2B2c4- | 
[V:4] D,4C,4 | 
[V:1] z2A4B2 | 
[V:2] A2F2f4 | 
[V:3] c2Bcd4 | 
[V:4] F,4D,4 :
[V:1] G2c3BAG | 
[V:2] e4c2f2- | 
[V:3] B2c2A2d2- | 
[V:4] E,4F,4 :
[V:1] F2G4^F2 | 
[V:2] fedcd4 | 
[V:3] d2B2A4 | 
[V:4] D,8 | 
[V:1] G8 | 
[V:2] e4z4 | 
[V:3] z4c4 | 
[V:4] C,8- :
[V:1] z4G4 | 
[V:2] e8- | 
[V:3] c4c4 | 
[V:4] C,8 :
[V:1] G4G4 | 
[V:2] e4e4 | 
[V:3] c4c4 | 
[V:4] z8 | 
[V:1] A4A4 | 
[V:2] f2F2A3B | 
[V:3] A3Bc2d2 | 
[V:4] F,8 :
[V:1] G3FG2A2- | 
[V:2] c2G2c4 | 
[V:3] G2c3BAG | 
[V:4] E,4C,4 :
[V:1] AGF4ED | 
[V:2] A4z2A2 | 
[V:3] F8 | 
[V:4] D,8 | 
[V:1] E8 | 
[V:2] c3de4 | 
[V:3] z2c2c2c2 | 
[V:4] C,8 :
[V:1] z8 | 
[V:2] f2F2A3B | 
[V:3] A3Bc2d2 | 
[V:4] F,8 :
[V:1] z8 | 
[V:2] cB_e3dcB | 
[V:3] G2c3BAG | 
[V:4] _E,4C,4 | 
[V:1] z8 | 
[V:2] A4G2C2 | 
[V:3] F4G4 | 
[V:4] D,4_E,4- :
[V:1] z8 | 
[V:2] G3FE2C2 | 
[V:3] z2G4A2- | 
[V:4] E,4C,4 :
[V:1] z4D4 | 
[V:2] D4z2D2 | 
[V:3] A2F2G4 | 
[V:4] B,,8 | 
[V:1] C4D2F2- | 
[V:2] E2F4ED | 
[V:3] A4z2A2- | 
[V:4] A,,4D,4- :
[V:1] F2EDE4 | 
[V:2] F4G2A2- | 
[V:3] A2B2c4- | 
[V:4] D,4C,4 :
[V:1] A,4A4- | 
[V:2] A2D2A2D2- | 
[V:3] c2d2c2d2- | 
[V:4] F,8 | 
[V:1] A4F4 | 
[V:2] D2d3cd2 | 
[V:3] d2cBA2B2- | 
[V:4] D,8 :
[V:1] G2B4AG | 
[V:2] B3GG4 | 
[V:3] BGG4c2- | 
[V:4] z4E,4 :
[V:1] A4D4 | 
[V:2] z2d4B2 | 
[V:3] c2A2B2G2 | 
[V:4] F,4G,4 | 
[V:1] z4A4 | 
[V:2] d2c3Ac2 | 
[V:3] F4z2F2 | 
[V:4] A,8 :
[V:1] B4c3B | 
[V:2] B2G2c3d | 
[V:3] G2B2A2c2- | 
[V:4] G,4F,4 :
[V:1] G3AB3G | 
[V:2] _e3dB2G2 | 
[V:3] cBG3AB2- | 
[V:4] _E,8 | 
[V:1] F3GA3G | 
[V:2] d3cA2F2 | 
[V:3] BAF3GA2- | 
[V:4] D,8 :
[V:1] E4z2G2 | 
[V:2] c6BA | 
[V:3] A2G4c2 | 
[V:4] C,8 :
[V:1] G2G2A4 | 
[V:2] G2g2f3e | 
[V:3] B2c2A2d2- | 
[V:4] E,4F,4 | 
[V:1] B4A4 | 
[V:2] dcd2c2F2 | 
[V:3] d2B2c2A2- | 
[V:4] G,4A,4 :
[V:1] z2F2F2F2 | 
[V:2] A2D2d4 | 
[V:3] A2d4B2- | 
[V:4] F,4D,4 :
[V:1] G3AB3A | 
[V:2] B4G4 | 
[V:3] B2G4B2- | 
[V:4] _E,8 | 
[V:1] F3GA2D2 | 
[V:2] d8 | 
[V:3] B2A4B2- | 
[V:4] D,8- :
[V:1] F3GA2B2 | 
[V:2] z2D2F3G | 
[V:3] B2A4D2 | 
[V:4] D,8- :
[V:1] A2D2F3G | 
[V:2] A2B2A2D2 | 
[V:3] F3GA2B2 | 
[V:4] D,8- | 
[V:1] A2B2A2D2 | 
[V:2] F3GA2B2 | 
[V:3] A2D2F3G | 
[V:4] D,8- :
[V:1] F3GA2B2 | 
[V:2] A2d3cf2- | 
[V:3] A2B2A2d2- | 
[V:4] D,8- :
[V:1] AGG4^F2 | 
[V:2] fedcd4 | 
[V:3] d2B2A4 | 
[V:4] D,8 | 
[V:1] G8 |]  
[V:2] d8 |]  
[V:3] G8 |]  
[V:4] G,,8 |]  



